X: 21333
T: FREE SUFFRAGE SETT (tune 6)
C:
%R: reel
B: Elias Howe "The Musician's Companion" 1843 p.133 #3
S: http://imslp.org/wiki/The_Musician's_Companion_(Howe,_Elias)
Z: 2015 John Chambers <jc:trillian.mit.edu>
M: 2/4
L: 1/16
K: D
% - - - - - - - - - - - - - - - - - - - - - - - - - - - - -
V: 1 name="6"
|:\
(dA).F.A (de).f.g | (ab).a.f (ga).g.e |\
(dA).F.A (de).f.g | (ab).a.f d4 :|\
(fA).A.A (aA).A.A | (fA).A.A (gA).A.A |\
(fA).A.A (aA).A.A | g2.e2 d4 "^D.C."y :|
% - - - - - - - - - - Dance description - - - - - - - - - -
%%begintext align
%% (The dance description is missing for this tune.)
%%endtext
% - - - - - - - - - - - - - - - - - - - - - - - - - - - - -
%%sep 1 1 300

%%sep 1 1 500

